src/assets/filled/Weight1.svg

<svg width="24" height="24" viewBox="0 0 24 24"  xmlns="http://www.w3.org/2000/svg">
<path d="M17.1799 5.25C15.4699 5.25 13.4299 5.9 13.4299 9V15C13.4299 18.1 15.4699 18.75 17.1799 18.75C18.8899 18.75 20.9299 18.1 20.9299 15V9C20.9299 5.9 18.8899 5.25 17.1799 5.25Z" />
<path d="M6.82007 5.25C5.11007 5.25 3.07007 5.9 3.07007 9V15C3.07007 18.1 5.11007 18.75 6.82007 18.75C8.53007 18.75 10.5701 18.1 10.5701 15V9C10.5701 5.9 8.53007 5.25 6.82007 5.25Z" />
<path d="M13.4301 11.25H10.5701V12.75H13.4301V11.25Z" />
<path d="M22.5 15.25C22.09 15.25 21.75 14.91 21.75 14.5V9.5C21.75 9.09 22.09 8.75 22.5 8.75C22.91 8.75 23.25 9.09 23.25 9.5V14.5C23.25 14.91 22.91 15.25 22.5 15.25Z" />
<path d="M1.5 15.25C1.09 15.25 0.75 14.91 0.75 14.5V9.5C0.75 9.09 1.09 8.75 1.5 8.75C1.91 8.75 2.25 9.09 2.25 9.5V14.5C2.25 14.91 1.91 15.25 1.5 15.25Z" />
</svg>

<?xml version="1.0" encoding="UTF-8"?>
<svg width="24" height="24" viewBox="0 0 24 24" xmlns="http://www.w3.org/2000/svg">
 <path d="m17.18 5.25c-1.71 0-3.75 0.65-3.75 3.75v6c0 3.1 2.04 3.75 3.75 3.75s3.75-0.65 3.75-3.75v-6c0-3.1-2.04-3.75-3.75-3.75z"/>
 <path d="m6.8201 5.25c-1.71 0-3.75 0.65-3.75 3.75v6c0 3.1 2.04 3.75 3.75 3.75s3.75-0.65 3.75-3.75v-6c0-3.1-2.04-3.75-3.75-3.75z"/>
 <path d="m13.43 11.25h-2.86v1.5h2.86v-1.5z"/>
 <path d="m22.5 15.25c-0.41 0-0.75-0.34-0.75-0.75v-5c0-0.41 0.34-0.75 0.75-0.75s0.75 0.34 0.75 0.75v5c0 0.41-0.34 0.75-0.75 0.75z"/>
 <path d="m1.5 15.25c-0.41 0-0.75-0.34-0.75-0.75v-5c0-0.41 0.34-0.75 0.75-0.75s0.75 0.34 0.75 0.75v5c0 0.41-0.34 0.75-0.75 0.75z"/>
</svg>
